X: 1
T: Phelim's Frolics
M: 4/4
L: 1/8
R: reel
K: Cmaj
c3G ECEG|cdcA BcdB|cdcG EG~G2|Addc BGAB|
c2GF ECEG|cege fedB|cAGF EG~G2|Addc BGAB|
~c2gc acgc|~c2gc BcdB|~c2gc acga|gedc BGAB|
~c2gc acgc|~c2gc BcdB|~c3d eg~g2|aged BGAB|
